X:1
T: Judy McFadden's Jig
C:
R:Jig
Q:180
K:A
M:6/8
L:1/16
|:A2|A6 c2B2A2|e2c2A2 c2B2A2|B4c2 d4e2|f2a2f2 e2c2B2|
A6 c2B2A2|e2c2A2 c2B2A2|B4c2 d2c2B2|c2A2F2 F4:|
|:A2|A2F2E2 E2F2A2|B2A2F2 d4f2|e2d2c2 c2B2A2|B2A2F2 F4A2|
A2F2E2 E2F2A2|B2A2F2 d4f2|e2d2c2 B2A2B2|c2A2A2 A4:|
